public/img/bg-primeiro-andar.svg

<svg width="307" height="292" viewBox="0 0 307 292" fill="none" xmlns="http://www.w3.org/2000/svg">
<path d="M109.696 246.748V291H44.1778V246.748M109.696 246.748V181.874M109.696 246.748H66.5185M44.1778 246.748V160.178H29.1407M44.1778 246.748H46.7556M1 138.481V160.178H29.1407M1 138.481V117H29.1407M1 138.481H29.1407M109.696 117V123.874H133.756V154.378H109.696V160.178M109.696 117V58.7852H254.267M109.696 117H102.607M109.696 160.178V181.874M109.696 160.178H108.193M109.696 181.874H66.5185M66.5185 246.748V189.393M66.5185 246.748H52.3407M66.5185 181.874V160.178H102.393M66.5185 181.874V183.378M109.696 133.326H124.733M109.696 133.326V145.356M109.696 133.326L124.733 145.356M124.733 133.326V145.356M124.733 133.326L109.696 145.356M124.733 145.356H109.696M29.1407 117V118.504M29.1407 117H94.4444M29.1407 124.089V134.185M29.1407 138.481V134.185M29.1407 138.481V149.695M29.1407 153.089V149.695M29.1407 158.459V160.178M29.1407 134.185H36.2296M42.4593 134.185H44.1778V149.695H36.6593H29.1407M96.163 117H94.4444M94.4444 117V58.7852H81.1259M81.1259 58.7852H25.9185V1H81.1259M81.1259 58.7852V56.637M81.1259 1V43.963M81.1259 1H167.911M81.1259 43.963V45.8963M81.1259 43.963H125.378M167.911 43.963H198.63M167.911 43.963V1M167.911 43.963H136.119M210.444 43.963H254.267M254.267 43.963V30.2148V1M254.267 43.963V46.5407M254.267 1H167.911M254.267 1H276.607H305.822V58.7852H275.748V72.963H254.267V58.7852M254.267 58.7852V56.4222" stroke="#18211A" stroke-width="2"/>
<path d="M46.7233 246.729H52.3385M66.5101 183.359V189.375M108.223 160.23H102.34M29.0757 153.144V158.491M36.1615 134.159H42.4451M29.0757 118.517V124.132M95.9227 117.046H102.607M81.2164 45.6538V56.8841M125.335 43.9158H136.165M198.6 43.9158H210.498M254.216 46.456V56.483" stroke="#FF8822"/>
<path d="M128.945 128.277H129.345V127.877H128.945V128.277ZM110.346 127.994C110.19 128.15 110.19 128.403 110.346 128.559L112.892 131.105C113.048 131.261 113.301 131.261 113.457 131.105C113.614 130.949 113.614 130.696 113.457 130.539L111.195 128.277L113.457 126.014C113.614 125.858 113.614 125.604 113.457 125.448C113.301 125.292 113.048 125.292 112.892 125.448L110.346 127.994ZM128.945 127.877L110.629 127.877V128.677H128.945V127.877ZM128.545 128.277V150.202H129.345V128.277H128.545Z" fill="#55DD77"/>
<path d="M110.717 149.717C110.561 149.873 110.561 150.127 110.717 150.283L113.263 152.828C113.419 152.985 113.672 152.985 113.828 152.828C113.985 152.672 113.985 152.419 113.828 152.263L111.566 150L113.828 147.737C113.985 147.581 113.985 147.328 113.828 147.172C113.672 147.015 113.419 147.015 113.263 147.172L110.717 149.717ZM129 149.6H111V150.4H129V149.6Z" fill="#55DD77"/>
</svg>

<svg width="307" height="292" fill="none" xmlns="http://www.w3.org/2000/svg"><path d="M109.696 246.748V291H44.178v-44.252m65.518 0v-64.874m0 64.874H66.519m-22.341 0v-86.57H29.14m15.037 86.57h2.578M1 138.481v21.697h28.14M1 138.481V117h28.14M1 138.481h28.14M109.697 117v6.874h24.06v30.504h-24.06v5.8m0-43.178V58.785h144.571M109.696 117h-7.089m7.089 43.178v21.696m0-21.696h-1.503m1.503 21.696H66.519m0 64.874v-57.355m0 57.355H52.34m14.178-64.874v-21.696h35.874m-35.874 21.696v1.504m43.177-50.052h15.037m-15.037 0v12.03m0-12.03l15.037 12.03m0-12.03v12.03m0-12.03l-15.037 12.03m15.037 0h-15.037M29.141 117v1.504m0-1.504h65.303m-65.303 7.089v10.096m0 4.296v-4.296m0 4.296v11.214m0 3.394v-3.394m0 8.764v1.719m0-25.993h7.089m6.23 0h1.718v15.51H29.14M96.163 117h-1.719m0 0V58.785H81.126m0 0H25.918V1h55.208m0 57.785v-2.148m0-55.637v42.963m0-42.963h86.785M81.126 43.963v1.933m0-1.933h44.252m42.533 0h30.719m-30.719 0V1m0 42.963h-31.792m74.325 0h43.823m0 0V1m0 42.963v2.578m0-45.541h-86.356m86.356 0h51.555v57.785h-30.074v14.178h-21.481V58.785m0 0v-2.363" stroke="#18211A" stroke-width="2"/><path d="M46.723 246.729h5.616m14.171-63.37v6.016m41.713-29.145h-5.883m-73.264-7.086v5.347m7.085-24.332h6.284m-13.37-15.642v5.615m66.848-7.086h6.684m-21.39-71.392v11.23m44.118-12.968h10.83m62.435 0h11.898m43.718 2.54v10.027" stroke="#F82"/><path d="M128.945 128.277h.4v-.4h-.4v.4zm-18.599-.283a.4.4 0 000 .565l2.546 2.546a.4.4 0 10.565-.566l-2.262-2.262 2.262-2.263a.399.399 0 10-.565-.566l-2.546 2.546zm18.599-.117h-18.316v.8h18.316v-.8zm-.4.4v21.925h.8v-21.925h-.8z" fill="#5D7"/><path d="M110.717 149.717a.4.4 0 000 .566l2.546 2.545a.398.398 0 00.565 0 .398.398 0 000-.565L111.566 150l2.262-2.263a.398.398 0 000-.565.398.398 0 00-.565 0l-2.546 2.545zM129 149.6h-18v.8h18v-.8z" fill="#5D7"/></svg>
